;FLAVOR:Marlin
;TIME:34385
;Filament used: 26.1902m
;Layer height: 0.2
;MINX:-91.55
;MINY:-57.3
;MINZ:0.28
;MAXX:99.378
;MAXY:57.3
;MAXZ:37.08
;Generated with Cura_SteamEngine 5.3.0
M82 ;absolute extrusion mode
;Start Gcode
G90 ;absolute positioning
M118 X25.00 Y25.00 Z20.00 T0
M140 S40 T0 ;Heat bed up to first layer temperature
M104 S200 T0 ;Set nozzle temperature to first layer temperature
M107 ;start with the fan off
G90
G28
M132 X Y Z A B
G1 Z50.000 F420
G161 X Y F3300
M7 T0
M6 T0
M651
M907 X100 Y100 Z40 A100 B20 ;Digital potentiometer value
M108 T0
;Purge line
G1 X-110.00 Y-60.00 F4800
G1 Z0.28 F420
G1 X-110.00 Y60.00 E17,4 F1200
;Purge line end
G92 E0
G92 E0
G1 F2400 E-1.3
;LAYER_COUNT:185
;LAYER:0
M107
G0 F3000 X1.05 Y-55.5 Z0.28
;TYPE:SKIRT
G1 F2400 E0
G1 F1500 X1.05 Y55.584 E5.17254
G1 X0.926 Y56.106 E5.19752
G1 X0.645 Y56.638 E5.22553
G1 X0.273 Y56.95 E5.24814
G1 X-.276 Y57.223 E5.27669
G1 X-.75 Y57.3 E5.29905
G1 X-89.834 Y57.3 E9.44718
G1 X-90.356 Y57.176 E9.47216
G1 X-90.888 Y56.895 E9.50018
G1 X-91.2 Y56.523 E9.52278
G1 X-91.473 Y55.974 E9.55133
G1 X-91.55 Y55.5 E9.57369
G1 X-91.55 Y-55.584 E14.74623
G1 X-91.426 Y-56.106 E14.77121
G1 X-91.145 Y-56.638 E14.79923
G1 X-90.773 Y-56.95 E14.82184
G1 X-90.224 Y-57.223 E14.85039
G1 X-89.75 Y-57.3 E14.87275
G1 X-.75 Y-57.3 E19.01696
G1 X-.198 Y-57.205 E19.04304
G1 X0.388 Y-56.895 E19.07391
G1 X0.7 Y-56.523 E19.09652
G1 X0.973 Y-55.974 E19.12507
G1 X1.05 Y-55.5 E19.14743
G0 F3000 X0.65 Y-55.5
G1 F1500 X0.65 Y55.542 E24.31801
G1 X0.572 Y55.919 E24.33594
G1 X0.327 Y56.383 E24.36037
G1 X0.095 Y56.592 E24.37491
G1 X-.399 Y56.838 E24.40061
G1 X-.75 Y56.9 E24.4172
G1 X-89.792 Y56.9 E28.56337
G1 X-90.169 Y56.822 E28.5813
G1 X-90.633 Y56.577 E28.60573
G1 X-90.842 Y56.345 E28.62027
G1 X-91.088 Y55.851 E28.64597
G1 X-91.15 Y55.5 E28.66257
G1 X-91.15 Y-55.542 E33.83315
G1 X-91.072 Y-55.919 E33.85107
G1 X-90.827 Y-56.383 E33.87551
G1 X-90.595 Y-56.592 E33.89005
G1 X-90.101 Y-56.838 E33.91574
G1 X-89.75 Y-56.9 E33.93234
G1 X-.75 Y-56.9 E38.07655
G1 X-.331 Y-56.822 E38.0964
G1 X0.133 Y-56.577 E38.12083
G1 X0.342 Y-56.345 E38.13537
G1 X0.588 Y-55.851 E38.16107
G1 X0.65 Y-55.5 E38.17766
G1 F2400 E36.87766
G0 F3000 X0.25 Y55.5
G1 F2400 E38.17766
G1 F1500 X0.18 Y55.838 E38.19374
G1 X0.043 Y56.101 E38.20755
G1 X-0.095 Y56.24 E38.21667
G1 X-.477 Y56.446 E38.23688
G1 X-.75 Y56.5 E38.24983
G1 X-89.75 Y56.5 E42.39405
G1 X-90.088 Y56.43 E42.41012
G1 X-90.351 Y56.293 E42.42393
G1 X-90.49 Y56.155 E42.43305
G1 X-90.696 Y55.773 E42.45326
G1 X-90.75 Y55.5 E42.46622
G1 X-90.75 Y-55.5 E47.63484
G1 X-90.68 Y-55.838 E47.65091
G1 X-90.543 Y-56.101 E47.66472
G1 X-90.405 Y-56.24 E47.67384
G1 X-90.023 Y-56.446 E47.69405
G1 X-89.75 Y-56.5 E47.70701
G1 X-.75 Y-56.5 E51.85122
G1 X-.412 Y-56.43 E51.86729
G1 X-.149 Y-56.293 E51.8811
G1 X-0.01 Y-56.155 E51.89022
G1 X0.196 Y-55.773 E51.91043
G1 X0.25 Y-55.5 E51.92339
G1 X0.25 Y55.5 E57.09202
G0 F3000 X-.15 Y55.5
G1 F1500 X-.209 Y55.744 E57.1037
G1 X-.3 Y55.896 E57.11195
G1 X-.57 Y56.057 E57.12659
G1 X-.75 Y56.1 E57.13521
G1 X-89.75 Y56.1 E61.27942
G1 X-89.994 Y56.041 E61.29111
G1 X-90.146 Y55.95 E61.29936
G1 X-90.307 Y55.68 E61.314
G1 X-90.35 Y55.5 E61.32262
G1 X-90.35 Y-55.5 E66.49124
G1 X-90.291 Y-55.744 E66.50293
G1 X-90.2 Y-55.896 E66.51118
G1 X-89.93 Y-56.057 E66.52582
G1 X-89.75 Y-56.1 E66.53443
G1 X-.75 Y-56.1 E70.67865
G1 X-.506 Y-56.041 E70.69034
G1 X-.354 Y-55.95 E70.69859
G1 X-.193 Y-55.68 E70.71322
G1 X-.15 Y-55.5 E70.72184
G1 X-.15 Y55.5 E75.89047
G0 F3000 X-.55 Y55.5
G1 F1500 X-.589 Y55.619 E75.8963
G1 X-.75 Y55.7 E75.90469
G1 X-89.75 Y55.7 E80.0489
G1 X-89.869 Y55.661 E80.05473
G1 X-89.95 Y55.5 E80.06312
G1 X-89.95 Y-55.5 E85.23175
G1 X-89.911 Y-55.619 E85.23758
G1 X-89.75 Y-55.7 E85.24597
G1 X-.75 Y-55.7 E89.39019
G1 X-.631 Y-55.661 E89.39602
G1 X-.55 Y-55.5 E89.40441
G1 X-.55 Y55.5 E94.57303
G1 F2400 E93.27303
G0 F3000 X-0.085 Y55.5
G0 X6.778 Y55.5
G1 F2400 E94.57303
G1 F1500 X6.778 Y-55.584 E99.74557
G1 X6.902 Y-56.106 E99.77055
G1 X7.183 Y-56.638 E99.79857
G1 X7.555 Y-56.95 E99.82118
G1 X8.104 Y-57.223 E99.84973
G1 X8.578 Y-57.3 E99.87209
G1 X97.578 Y-57.3 E104.0163
G1 X98.13 Y-57.205 E104.04238
G1 X98.716 Y-56.895 E104.07325
G1 X99.028 Y-56.523 E104.09586
G1 X99.301 Y-55.974 E104.12441
G1 X99.378 Y-55.5 E104.14677
G1 X99.378 Y55.584 E109.31931
G1 X99.254 Y56.106 E109.34429
G1 X98.973 Y56.638 E109.3723
G1 X98.601 Y56.95 E109.39491
G1 X98.052 Y57.223 E109.42346
G1 X97.578 Y57.3 E109.44582
G1 X8.494 Y57.3 E113.59395
G1 X7.972 Y57.176 E113.61893
G1 X7.44 Y56.895 E113.64695
G1 X7.128 Y56.523 E113.66955
G1 X6.855 Y55.974 E113.6981
G1 X6.778 Y55.5 E113.72046
G0 F3000 X7.178 Y55.5
G1 F1500 X7.24 Y55.851 E113.73706
G1 X7.486 Y56.345 E113.76276
G1 X7.695 Y56.577 E113.7773
G1 X8.159 Y56.822 E113.80173
G1 X8.536 Y56.9 E113.81966
G1 X97.578 Y56.9 E117.96583
G1 X97.929 Y56.838 E117.98242
G1 X98.423 Y56.592 E118.00812
G1 X98.655 Y56.383 E118.02266
G1 X98.9 Y55.919 E118.04709
G1 X98.978 Y55.542 E118.06502
G1 X98.978 Y-55.5 E123.2356
G1 X98.916 Y-55.851 E123.2522
G1 X98.67 Y-56.345 E123.27789
G1 X98.461 Y-56.577 E123.29243
G1 X97.997 Y-56.822 E123.31687
G1 X97.578 Y-56.9 E123.33671
G1 X8.578 Y-56.9 E127.48092
G1 X8.227 Y-56.838 E127.49752
G1 X7.733 Y-56.592 E127.52322
G1 X7.501 Y-56.383 E127.53776
G1 X7.256 Y-55.919 E127.56219
G1 X7.178 Y-55.542 E127.58012
G1 X7.178 Y55.5 E132.7507
G0 F3000 X7.578 Y55.5
G1 F1500 X7.578 Y-55.5 E137.91932
G1 X7.648 Y-55.838 E137.9354
G1 X7.785 Y-56.101 E137.9492
G1 X7.923 Y-56.24 E137.95833
G1 X8.305 Y-56.446 E137.97853
G1 X8.578 Y-56.5 E137.99149
G1 X97.578 Y-56.5 E142.13571
G1 X97.916 Y-56.43 E142.15178
G1 X98.179 Y-56.293 E142.16559
G1 X98.318 Y-56.155 E142.17471
G1 X98.524 Y-55.773 E142.19492
G1 X98.578 Y-55.5 E142.20787
G1 X98.578 Y55.5 E147.3765
G1 X98.508 Y55.838 E147.39257
G1 X98.371 Y56.101 E147.40638
G1 X98.233 Y56.24 E147.4155
G1 X97.851 Y56.446 E147.43571
G1 X97.578 Y56.5 E147.44867
G1 X8.578 Y56.5 E151.59288
G1 X8.24 Y56.43 E151.60895
G1 X7.977 Y56.293 E151.62276
G1 X7.838 Y56.155 E151.63188
G1 X7.632 Y55.773 E151.65209
G1 X7.578 Y55.5 E151.66505
G0 F3000 X7.978 Y55.5
G1 F1500 X7.978 Y-55.5 E156.83367
G1 X8.037 Y-55.744 E156.84536
G1 X8.128 Y-55.896 E156.85361
G1 X8.398 Y-56.057 E156.86825
G1 X8.578 Y-56.1 E156.87687
G1 X97.578 Y-56.1 E161.02108
G1 X97.822 Y-56.041 E161.03277
G1 X97.974 Y-55.95 E161.04102
G1 X98.135 Y-55.68 E161.05566
G1 X98.178 Y-55.5 E161.06427
G1 X98.178 Y55.5 E166.2329
G1 X98.119 Y55.744 E166.24459
G1 X98.028 Y55.896 E166.25284
G1 X97.758 Y56.057 E166.26748
G1 X97.578 Y56.1 E166.27609
G1 X8.578 Y56.1 E170.42031
G1 X8.334 Y56.041 E170.432
G1 X8.182 Y55.95 E170.44024
G1 X8.021 Y55.68 E170.45488
G1 X7.978 Y55.5 E170.4635
G0 F3000 X8.378 Y55.5
G1 F1500 X8.378 Y-55.5 E175.63212
G1 X8.417 Y-55.619 E175.63796
G1 X8.578 Y-55.7 E175.64635
G1 X97.578 Y-55.7 E179.79056
G1 X97.697 Y-55.661 E179.79639
G1 X97.778 Y-55.5 E179.80478
G1 X97.778 Y55.5 E184.97341
G1 X97.739 Y55.619 E184.97924
G1 X97.578 Y55.7 E184.98763
G1 X8.578 Y55.7 E189.13185
G1 X8.459 Y55.661 E189.13768
G1 X8.378 Y55.5 E189.14607
G1 F2400 E187.84607
;MESH:Tampa Case Principal.stl
G0 F3000 X7.913 Y55.5
G0 X-0.085 Y55.086
G0 X-1.164 Y55.086
G0 X-1.35 Y54.9
;TYPE:WALL-INNER
G1 F2400 E189.14607
G1 F1500 X-1.35 Y-54.9 E194.25882
G1 X-89.15 Y-54.9 E198.34715
G1 X-89.15 Y54.9 E203.4599
G1 X-1.35 Y54.9 E207.54824
G0 F3000 X-1.62 Y54.63
G0 X-6.79 Y53.002
G0 X-6.75 Y52.705
G1 F1500 X-7.579 Y52.597 E207.58716
G1 X-8.354 Y52.276 E207.62622
G1 X-9.017 Y51.766 E207.66517
G1 X-9.527 Y51.102 E207.70416
G1 X-9.847 Y50.329 E207.74312
G1 X-9.955 Y49.499 E207.78209
G1 X-9.843 Y48.666 E207.82123
G1 X-9.528 Y47.899 E207.85984
G1 X-9.016 Y47.234 E207.89892
G1 X-8.351 Y46.722 E207.938
G1 X-7.583 Y46.407 E207.97665
G1 X-6.729 Y46.298 E208.01674
G1 X-5.917 Y46.405 E208.05487
G1 X-5.148 Y46.723 E208.09362
G1 X-4.485 Y47.232 E208.13254
G1 X-3.973 Y47.898 E208.17166
G1 X-3.654 Y48.669 E208.21051
G1 X-3.55 Y49.5 E208.24951
G1 X-3.654 Y50.33 E208.28846
G1 X-3.973 Y51.104 E208.32744
G1 X-4.487 Y51.763 E208.36636
G1 X-5.144 Y52.275 E208.40514
G1 X-5.918 Y52.596 E208.44416
G1 X-6.75 Y52.705 E208.48323
G0 F3000 X-6.79 Y53.002
G0 X-83.79 Y53.002
G0 X-83.75 Y52.705
G1 F1500 X-84.579 Y52.597 E208.52216
G1 X-85.356 Y52.276 E208.56131
G1 X-86.013 Y51.763 E208.60012
G1 X-86.525 Y51.106 E208.63891
G1 X-86.846 Y50.332 E208.67792
G1 X-86.955 Y49.5 E208.717
G1 X-86.847 Y48.671 E208.75592
G1 X-86.526 Y47.896 E208.79498
G1 X-86.016 Y47.233 E208.83393
G1 X-85.352 Y46.723 E208.87292
G1 X-84.579 Y46.403 E208.91188
G1 X-83.749 Y46.295 E208.95085
G1 X-82.908 Y46.408 E208.99036
G1 X-82.148 Y46.723 E209.02867
G1 X-81.484 Y47.234 E209.06768
G1 X-80.972 Y47.899 E209.10676
G1 X-80.657 Y48.666 E209.14537
G1 X-80.545 Y49.499 E209.18451
G1 X-80.653 Y50.329 E209.22348
G1 X-80.973 Y51.102 E209.26244
G1 X-81.483 Y51.766 E209.30143
G1 X-82.146 Y52.276 E209.34038
G1 X-82.918 Y52.596 E209.37929
G1 X-83.75 Y52.705 E209.41836
G0 F3000 X-83.79 Y53.002
G0 X-84.642 Y52.828
G0 X-85.474 Y52.485
G0 X-86.186 Y51.936
G0 X-86.735 Y51.224
G0 X-87.078 Y50.392
G0 X-83.789 Y-45.998
G0 X-83.749 Y-46.295
G1 F1500 X-84.579 Y-46.403 E209.45734
G1 X-85.352 Y-46.723 E209.49629
G1 X-86.016 Y-47.233 E209.53528
G1 X-86.526 Y-47.896 E209.57423
G1 X-86.846 Y-48.668 E209.61314
G1 X-86.955 Y-49.5 E209.65221
G1 X-86.847 Y-50.329 E209.69114
G1 X-86.526 Y-51.106 E209.73029
G1 X-86.013 Y-51.763 E209.7691
G1 X-85.356 Y-52.275 E209.80789
G1 X-84.582 Y-52.596 E209.8469
G1 X-83.75 Y-52.705 E209.88598
G1 X-82.921 Y-52.597 E209.92491
G1 X-82.146 Y-52.276 E209.96397
G1 X-81.483 Y-51.766 E210.00291
G1 X-80.973 Y-51.102 E210.0419
G1 X-80.653 Y-50.329 E210.08086
G1 X-80.545 Y-49.499 E210.11983
G1 X-80.658 Y-48.658 E210.15934
G1 X-80.973 Y-47.898 E210.19765
G1 X-81.484 Y-47.234 E210.23667
G1 X-82.149 Y-46.722 E210.27575
G1 X-82.916 Y-46.407 E210.31436
G1 X-83.749 Y-46.295 E210.35349
G0 F3000 X-83.789 Y-45.998
G0 X-6.69 Y-46
G0 X-6.729 Y-46.298
G1 F1500 X-7.591 Y-46.408 E210.39396
G1 X-8.352 Y-46.723 E210.43231
G1 X-9.016 Y-47.234 E210.47132
G1 X-9.528 Y-47.899 E210.5104
G1 X-9.843 Y-48.666 E210.54901
G1 X-9.955 Y-49.499 E210.58815
G1 X-9.847 Y-50.329 E210.62712
G1 X-9.527 Y-51.102 E210.66608
G1 X-9.017 Y-51.766 E210.70506
G1 X-8.354 Y-52.276 E210.74401
G1 X-7.582 Y-52.596 E210.78293
G1 X-6.75 Y-52.705 E210.822
G1 X-5.921 Y-52.597 E210.86093
G1 X-5.144 Y-52.276 E210.90007
G1 X-4.487 Y-51.763 E210.93889
G1 X-3.974 Y-51.104 E210.97778
G1 X-3.654 Y-50.331 E211.01673
G1 X-3.55 Y-49.5 E211.05573
G1 X-3.654 Y-48.67 E211.09468
G1 X-3.973 Y-47.898 E211.13357
G1 X-4.485 Y-47.232 E211.17269
G1 X-5.148 Y-46.723 E211.21161
G1 X-5.917 Y-46.405 E211.25036
G1 X-6.729 Y-46.298 E211.2885
G0 F3000 X-6.75 Y-46.699
;TYPE:WALL-OUTER
G1 F1500 X-7.486 Y-46.798 E211.32308
G1 X-8.149 Y-47.073 E211.3565
G1 X-8.726 Y-47.516 E211.39037
G1 X-9.177 Y-48.101 E211.42477
G1 X-9.452 Y-48.764 E211.45819
G1 X-9.551 Y-49.5 E211.49277
G1 X-9.457 Y-50.225 E211.52681
G1 X-9.177 Y-50.901 E211.56088
G1 X-8.731 Y-51.481 E211.59495
G1 X-8.153 Y-51.926 E211.62892
G1 X-7.459 Y-52.209 E211.66382
G1 X-6.75 Y-52.301 E211.69711
G1 X-6.025 Y-52.207 E211.73115
G1 X-5.346 Y-51.926 E211.76537
G1 X-4.77 Y-51.48 E211.79929
G1 X-4.323 Y-50.901 E211.83335
G1 X-4.043 Y-50.225 E211.86742
G1 X-3.95 Y-49.5 E211.90146
G1 X-4.041 Y-48.791 E211.93474
G1 X-4.323 Y-48.099 E211.96954
G1 X-4.771 Y-47.517 E212.00373
G1 X-5.349 Y-47.073 E212.03767
G1 X-6.025 Y-46.793 E212.07174
G1 X-6.75 Y-46.699 E212.10579
G0 F3000 X-6.948 Y-46.725
G0 X-7.04 Y-46.031
G0 X-83.842 Y-46.005
G0 X-83.75 Y-46.699
G1 F1500 X-84.475 Y-46.793 E212.13983
G1 X-85.151 Y-47.073 E212.1739
G1 X-85.731 Y-47.519 E212.20797
G1 X-86.176 Y-48.097 E212.24193
G1 X-86.459 Y-48.791 E212.27683
G1 X-86.551 Y-49.5 E212.31012
G1 X-86.457 Y-50.225 E212.34416
G1 X-86.176 Y-50.903 E212.37834
G1 X-85.731 Y-51.481 E212.41231
G1 X-85.153 Y-51.926 E212.44627
G1 X-84.459 Y-52.209 E212.48117
G1 X-83.75 Y-52.301 E212.51446
G1 X-83.025 Y-52.207 E212.5485
G1 X-82.347 Y-51.926 E212.58268
G1 X-81.769 Y-51.481 E212.61665
G1 X-81.323 Y-50.901 E212.65071
G1 X-81.043 Y-50.225 E212.68478
G1 X-80.949 Y-49.5 E212.71883
G1 X-81.048 Y-48.764 E212.75341
G1 X-81.323 Y-48.101 E212.78683
G1 X-81.766 Y-47.524 E212.8207
G1 X-82.351 Y-47.073 E212.8551
G1 X-83.014 Y-46.798 E212.88852
G1 X-83.75 Y-46.699 E212.9231
G0 F3000 X-83.948 Y-46.724
G0 X-84.04 Y-46.031
G0 X-87.197 Y49.5
G0 X-87.078 Y50.392
G0 X-86.735 Y51.224
G0 X-86.186 Y51.936
G0 X-85.474 Y52.485
G0 X-83.842 Y52.995
G0 X-83.75 Y52.301
G1 F1500 X-84.475 Y52.207 E212.95714
G1 X-85.153 Y51.926 E212.99132
G1 X-85.731 Y51.481 E213.02528
G1 X-86.176 Y50.903 E213.05925
G1 X-86.459 Y50.209 E213.09415
G1 X-86.551 Y49.5 E213.12744
G1 X-86.457 Y48.775 E213.16148
G1 X-86.176 Y48.097 E213.19565
G1 X-85.731 Y47.519 E213.22962
G1 X-85.151 Y47.073 E213.26369
G1 X-84.475 Y46.793 E213.29776
G1 X-83.75 Y46.699 E213.3318
G1 X-83.014 Y46.798 E213.36638
G1 X-82.351 Y47.073 E213.3998
G1 X-81.774 Y47.516 E213.43368
G1 X-81.323 Y48.101 E213.46807
G1 X-81.048 Y48.764 E213.5015
G1 X-80.949 Y49.5 E213.53608
G1 X-81.043 Y50.225 E213.57012
G1 X-81.323 Y50.901 E213.60419
G1 X-81.769 Y51.481 E213.63826
G1 X-82.347 Y51.926 E213.67222
G1 X-83.041 Y52.209 E213.70712
G1 X-83.75 Y52.301 E213.74041
G0 F3000 X-83.948 Y52.276
G0 X-84.04 Y52.969
G0 X-6.842 Y52.995
G0 X-6.75 Y52.301
G1 F1500 X-7.475 Y52.207 E213.77445
G1 X-8.153 Y51.926 E213.80863
G1 X-8.731 Y51.481 E213.8426
G1 X-9.177 Y50.901 E213.87666
G1 X-9.457 Y50.225 E213.91074
G1 X-9.551 Y49.5 E213.94478
G1 X-9.452 Y48.764 E213.97936
G1 X-9.177 Y48.101 E214.01278
G1 X-8.734 Y47.524 E214.04665
G1 X-8.149 Y47.073 E214.08105
G1 X-7.486 Y46.798 E214.11447
G1 X-6.75 Y46.699 E214.14905
G1 X-6.025 Y46.793 E214.18309
G1 X-5.349 Y47.073 E214.21716
G1 X-4.771 Y47.517 E214.2511
G1 X-4.323 Y48.099 E214.2853
G1 X-4.043 Y48.775 E214.31937
G1 X-3.95 Y49.5 E214.35341
G1 X-4.041 Y50.209 E214.38669
G1 X-4.323 Y50.901 E214.42149
G1 X-4.77 Y51.48 E214.45555
G1 X-5.347 Y51.926 E214.4895
G1 X-6.041 Y52.209 E214.5244
G1 X-6.75 Y52.301 E214.55769
G0 F3000 X-6.948 Y52.276
G0 X-7.04 Y52.969
G0 X-1.22 Y55.03
G0 X-.95 Y55.3
G1 F1500 X-.95 Y-55.3 E219.70769
G1 X-89.55 Y-55.3 E223.83328
G1 X-89.55 Y55.3 E228.98328
G1 X-.95 Y55.3 E233.10887
G0 F3000 X-.95 Y55.1
G0 X-1.62 Y54.63
G0 X-6.753 Y-45.912
;TYPE:SKIN
G1 F1500 X-5.818 Y-46.033 E233.15277
G1 X-4.959 Y-46.389 E233.19607
G1 X-4.216 Y-46.958 E233.23964
G1 X-3.639 Y-47.709 E233.28374
G1 X-3.281 Y-48.585 E233.32781
G1 X-3.168 Y-49.502 E233.37083
G1 X-3.28 Y-50.427 E233.41422
G1 X-3.64 Y-51.292 E233.45784
G1 X-4.216 Y-52.04 E233.5018
G1 X-4.953 Y-52.608 E233.54513
G1 X-5.818 Y-52.967 E233.58874
G1 X-6.752 Y-53.088 E233.63259
G1 X-7.668 Y-52.968 E233.67561
G1 X-8.547 Y-52.608 E233.71984
G1 X-9.289 Y-52.038 E233.76341
G1 X-9.86 Y-51.293 E233.80712
G1 X-10.217 Y-50.432 E233.85052
G1 X-10.339 Y-49.497 E233.89442
G1 X-10.206 Y-48.54 E233.93941
G1 X-9.84 Y-47.681 E233.98289
G1 X-9.283 Y-46.959 E234.02535
G1 X-8.552 Y-46.4 E234.0682
G1 X-7.701 Y-46.039 E234.11125
G1 X-6.753 Y-45.912 E234.15579
G0 F3000 X-83.747 Y-45.912
G1 F1500 X-82.799 Y-46.039 E234.20032
G1 X-81.93 Y-46.411 E234.24434
G1 X-81.209 Y-46.967 E234.28673
G1 X-80.649 Y-47.7 E234.32969
G1 X-80.294 Y-48.54 E234.37215
G1 X-80.161 Y-49.497 E234.41714
G1 X-80.283 Y-50.432 E234.46105
G1 X-80.64 Y-51.293 E234.50445
G1 X-81.211 Y-52.038 E234.54816
G1 X-81.953 Y-52.608 E234.59172
G1 X-82.818 Y-52.967 E234.63533
G1 X-83.752 Y-53.088 E234.67919
G1 X-84.668 Y-52.968 E234.72221
G1 X-85.546 Y-52.609 E234.76637
G1 X-86.288 Y-52.038 E234.80997
G1 X-86.859 Y-51.295 E234.8536
G1 X-87.217 Y-50.432 E234.89711
G1 X-87.338 Y-49.498 E234.94096
G1 X-87.218 Y-48.583 E234.98394
G1 X-86.859 Y-47.704 E235.02815
G1 X-86.29 Y-46.962 E235.07169
G1 X-85.546 Y-46.392 E235.11533
G1 X-84.681 Y-46.032 E235.15896
G1 X-83.747 Y-45.912 E235.20281
G0 F3000 X-80.303 Y49.5
G0 X-80.422 Y50.392
G0 X-80.765 Y51.224
G0 X-81.314 Y51.936
G0 X-82.026 Y52.485
G0 X-83.748 Y53.088
G1 F1500 X-82.832 Y52.968 E235.24582
G1 X-81.953 Y52.608 E235.29005
